X: 2041
T: Zehretme Hayatı Bana Cânânım
C: Zeki Müren
O: Turkey
F: http://compmusic.upf.edu/node/140
N: acemkurdi--sarki--kapali_curcuna--zehretme_hayati--zeki_muren
N: makam= acemkurdi
N: form= sarki
N: usul= kapali_curcuna = 10/8
M: 10/8
L: 1/16
K: C _B   
Q: 1/4=180
%%MIDI tuningsystem comma53
z4 e2f4e2 f2g4f2  | f16-f4  | z4 e2f2 g2a2 e2f2 d2c2  | \
w:  Zeh *  ret  |  me   |  ha ya  | 
e18ed  | 
w:  tı   | 
d4 c2d2 e2f2 e2f2 g2{a}gf  | f16-f4  | \
w:  *  ba na  *  câ *  nâ  |  nım    | 
z4 b2a2 g2f2 e2f2 g2{a}gf  | 
w:  ba na  *  câ *  nâ  | 
f3e d2c2 B2B2 A2A6  | z4 e2f4e2 f2g4f2  | f16-f4  | \
w:  nım   SAZ  |  Zeh *  ret  |  me   | 
z4 e2f2 g2a2 e2f2 d2c2  | 
w:  ha ya  | 
e18ed  | d4 c2d2 e2f2 e2f2 g2{a}gf  | f16-f4  | \
w:  tı   |  *  ba na  *  câ *  nâ  |  nım    | 
z4 b2a2 g2f2 e2f2 g2{a}gf  | 
w:  ba na  *  câ *  nâ  | 
f8-f2c2 def6  | z4 e2f4f2 e2g2 e2dc  | \
w:  nım   SAZ  |  E lem ler  | 
e18ed  | d4 c2d2 e2f2 edc2 B2A2  | 
w:  le   |  *  dol  | 
B16-B4  | z4 A2B2 c2d2 c2B2 A2G2  | G4 A2B4c4d6  | \
w:  du   |  be nim  *  her  *  â  |  nım    | 
z4 A2B2 cd_e2 dcc2 B2{c}BA  | 
w:  be nim  *  *  her  *  *  â  | 
A8-A2c2 def6  | z4 e2f4f2 e2g2 e2dc  | \
w:  nım   SAZ  |  E lem ler  | 
e18ed  | d4 c2d2 e2f2 edc2 B2A2  | 
w:  le   |  *  dol  | 
B16-B4  | z4 A2B2 c2d2 c2B2 A2G2  | G4 A2B4c4d6  | \
w:  du   |  be nim  *  her  *  â  |  nım    | 
z4 A2B2 cd_e2 dcc2 B2{c}BA  | 
w:  be nim  *  *  her  *  *  â  | 
A4 a2a2 g2f2 g2a6  | z4 g2a4a2 g2c'2 b2ba  | a16-a4  | \
w:  nım   SAZ  |  Ke de rin  |  le   | 
z4 a2c'8b2 a2g2  | 
w:  ya nıp   | 
z4 b2a2 g2f2 e2g2 e2dc  | e18d2  | z4 f2e2 d2c2 c_2/4Bc6  | \
w:  sön *  *  se   |  de   |  câ *  *  nım    | 
c2d2 e2f4e2 f2g2 a2gf  | 
w:  sön *  *  se  de  *  câ  | 
f8-f2c2 def6  | z4 e2f4f2 e2g2 e2dc  | \
w:  nım   SAZ  |  E lem ler  | 
e18ed  | d4 c2d2 e2f2 edc2 B2A2  | 
w:  le   |  *  dol  | 
B16-B4  | z4 A2B2 c2d2 c2B2 A2G2  | G4 A2B4c4d6  | \
w:  du   |  be nim  *  her  *  â  |  nım    | 
z4 A2B2 cd_e2 dcc2 B2{c}BA  | 
w:  be nim  *  *  her  *  *  â  | 
A8-A2c2 def6  | z4 e2f4f2 e2g2 e2dc  | \
w:  nım   SAZ  |  E lem ler  | 
e18ed  | d4 c2d2 e2f2 edc2 B2A2  | 
w:  le   |  *  dol  | 
B16-B4  | z4 A2B2 c2d2 c2B2 A2G2  | G4 A2B4c4d6  | \
w:  du   |  be nim  *  her  *  â  |  nım    | 
z4 A2B2 cd_e2 dcc2 B2{c}BA  | 
w:  be nim  *  *  her  *  *  â  | 
A4 |
w:  nım    | 


